images/442247.svg

<?xml version="1.0" encoding="UTF-8"?>
<svg xmlns="http://www.w3.org/2000/svg" xmlns:xlink="http://www.w3.org/1999/xlink" width="300pt" height="300pt" viewBox="0 0 300 300" version="1.1">
<defs>
<g>
<symbol overflow="visible" id="glyph0-0">
<path style="stroke:none;" d="M 0.546875 1.9375 L 0.546875 -7.75 L 6.046875 -7.75 L 6.046875 1.9375 Z M 1.171875 1.328125 L 5.4375 1.328125 L 5.4375 -7.140625 L 1.171875 -7.140625 Z M 1.171875 1.328125 "/>
</symbol>
<symbol overflow="visible" id="glyph0-1">
<path style="stroke:none;" d="M 1.078125 -8.015625 L 2.546875 -8.015625 L 6.09375 -1.3125 L 6.09375 -8.015625 L 7.15625 -8.015625 L 7.15625 0 L 5.6875 0 L 2.125 -6.703125 L 2.125 0 L 1.078125 0 Z M 1.078125 -8.015625 "/>
</symbol>
<symbol overflow="visible" id="glyph0-2">
<path style="stroke:none;" d="M 4.328125 -7.28125 C 3.546875 -7.28125 2.921875 -6.984375 2.453125 -6.390625 C 1.992188 -5.804688 1.765625 -5.007812 1.765625 -4 C 1.765625 -2.988281 1.992188 -2.1875 2.453125 -1.59375 C 2.921875 -1.007812 3.546875 -0.71875 4.328125 -0.71875 C 5.117188 -0.71875 5.742188 -1.007812 6.203125 -1.59375 C 6.660156 -2.1875 6.890625 -2.988281 6.890625 -4 C 6.890625 -5.007812 6.660156 -5.804688 6.203125 -6.390625 C 5.742188 -6.984375 5.117188 -7.28125 4.328125 -7.28125 Z M 4.328125 -8.171875 C 5.453125 -8.171875 6.351562 -7.789062 7.03125 -7.03125 C 7.707031 -6.28125 8.046875 -5.269531 8.046875 -4 C 8.046875 -2.738281 7.707031 -1.726562 7.03125 -0.96875 C 6.351562 -0.21875 5.453125 0.15625 4.328125 0.15625 C 3.203125 0.15625 2.300781 -0.21875 1.625 -0.96875 C 0.957031 -1.71875 0.625 -2.726562 0.625 -4 C 0.625 -5.269531 0.957031 -6.28125 1.625 -7.03125 C 2.300781 -7.789062 3.203125 -8.171875 4.328125 -8.171875 Z M 4.328125 -8.171875 "/>
</symbol>
</g>
</defs>
<g id="surface48829">
<rect x="0" y="0" width="300" height="300" style="fill:rgb(100%,100%,100%);fill-opacity:1;stroke:none;"/>
<path style="fill:none;stroke-width:1.2;stroke-linecap:butt;stroke-linejoin:miter;stroke:rgb(0%,0%,0%);stroke-opacity:1;stroke-miterlimit:10;" d="M 161.050781 99.296875 L 148.824219 103.089844 "/>
<path style="fill:none;stroke-width:1.2;stroke-linecap:butt;stroke-linejoin:miter;stroke:rgb(0%,0%,100%);stroke-opacity:1;stroke-miterlimit:10;" d="M 148.824219 103.089844 L 136.597656 106.886719 "/>
<path style="fill:none;stroke-width:1.2;stroke-linecap:butt;stroke-linejoin:miter;stroke:rgb(0%,0%,100%);stroke-opacity:1;stroke-miterlimit:10;" d="M 136.597656 106.886719 L 127.199219 98.195312 "/>
<path style="fill:none;stroke-width:1.2;stroke-linecap:butt;stroke-linejoin:miter;stroke:rgb(0%,0%,0%);stroke-opacity:1;stroke-miterlimit:10;" d="M 127.199219 98.195312 L 117.800781 89.503906 "/>
<path style="fill:none;stroke-width:1.2;stroke-linecap:butt;stroke-linejoin:miter;stroke:rgb(0%,0%,0%);stroke-opacity:1;stroke-miterlimit:10;" d="M 130.945312 131.855469 L 133.773438 119.371094 "/>
<path style="fill:none;stroke-width:1.2;stroke-linecap:butt;stroke-linejoin:miter;stroke:rgb(0%,0%,100%);stroke-opacity:1;stroke-miterlimit:10;" d="M 133.773438 119.371094 L 136.597656 106.886719 "/>
<path style=" stroke:none;fill-rule:nonzero;fill:rgb(100%,100%,100%);fill-opacity:1;" d="M 132.597656 100.386719 L 140.597656 100.386719 L 140.597656 113.386719 L 132.597656 113.386719 Z M 132.597656 100.386719 "/>
<g style="fill:rgb(0%,0%,100%);fill-opacity:1;">
  <use xlink:href="#glyph0-1" x="132.597656" y="110.288086"/>
</g>
<path style="fill:none;stroke-width:1.2;stroke-linecap:butt;stroke-linejoin:miter;stroke:rgb(0%,0%,0%);stroke-opacity:1;stroke-miterlimit:10;" d="M 117.800781 89.503906 L 93.347656 97.09375 "/>
<path style="fill:none;stroke-width:1.2;stroke-linecap:butt;stroke-linejoin:miter;stroke:rgb(0%,0%,0%);stroke-opacity:1;stroke-miterlimit:10;" d="M 93.347656 97.09375 L 87.695312 122.0625 "/>
<path style="fill:none;stroke-width:1.2;stroke-linecap:butt;stroke-linejoin:miter;stroke:rgb(0%,0%,0%);stroke-opacity:1;stroke-miterlimit:10;" d="M 87.695312 122.0625 L 63.242188 129.652344 "/>
<path style="fill:none;stroke-width:1.2;stroke-linecap:butt;stroke-linejoin:miter;stroke:rgb(0%,0%,0%);stroke-opacity:1;stroke-miterlimit:10;" d="M 87.035156 128.578125 L 67.472656 134.648438 "/>
<path style="fill:none;stroke-width:1.2;stroke-linecap:butt;stroke-linejoin:miter;stroke:rgb(0%,0%,0%);stroke-opacity:1;stroke-miterlimit:10;" d="M 106.492188 139.445312 L 87.695312 122.0625 "/>
<path style="fill:none;stroke-width:1.2;stroke-linecap:butt;stroke-linejoin:miter;stroke:rgb(0%,0%,0%);stroke-opacity:1;stroke-miterlimit:10;" d="M 63.242188 129.652344 L 57.589844 154.625 "/>
<path style="fill:none;stroke-width:1.2;stroke-linecap:butt;stroke-linejoin:miter;stroke:rgb(0%,0%,0%);stroke-opacity:1;stroke-miterlimit:10;" d="M 57.589844 154.625 L 76.386719 172.003906 "/>
<path style="fill:none;stroke-width:1.2;stroke-linecap:butt;stroke-linejoin:miter;stroke:rgb(0%,0%,0%);stroke-opacity:1;stroke-miterlimit:10;" d="M 55.378906 160.785156 L 70.417969 174.691406 "/>
<path style="fill:none;stroke-width:1.2;stroke-linecap:butt;stroke-linejoin:miter;stroke:rgb(100%,0%,0%);stroke-opacity:1;stroke-miterlimit:10;" d="M 35.25 167.132812 L 46.417969 160.878906 "/>
<path style="fill:none;stroke-width:1.2;stroke-linecap:butt;stroke-linejoin:miter;stroke:rgb(0%,0%,0%);stroke-opacity:1;stroke-miterlimit:10;" d="M 46.417969 160.878906 L 57.589844 154.625 "/>
<path style="fill:none;stroke-width:1.2;stroke-linecap:butt;stroke-linejoin:miter;stroke:rgb(0%,0%,0%);stroke-opacity:1;stroke-miterlimit:10;" d="M 76.386719 172.003906 L 100.839844 164.417969 "/>
<path style="fill:none;stroke-width:1.2;stroke-linecap:butt;stroke-linejoin:miter;stroke:rgb(0%,0%,0%);stroke-opacity:1;stroke-miterlimit:10;" d="M 76.386719 172.003906 L 71.027344 183.628906 "/>
<path style="fill:none;stroke-width:1.2;stroke-linecap:butt;stroke-linejoin:miter;stroke:rgb(100%,0%,0%);stroke-opacity:1;stroke-miterlimit:10;" d="M 71.027344 183.628906 L 65.667969 195.253906 "/>
<path style="fill:none;stroke-width:1.2;stroke-linecap:butt;stroke-linejoin:miter;stroke:rgb(0%,0%,0%);stroke-opacity:1;stroke-miterlimit:10;" d="M 100.839844 164.417969 L 106.492188 139.445312 "/>
<path style="fill:none;stroke-width:1.2;stroke-linecap:butt;stroke-linejoin:miter;stroke:rgb(0%,0%,0%);stroke-opacity:1;stroke-miterlimit:10;" d="M 95.53125 160.589844 L 100.054688 140.613281 "/>
<path style=" stroke:none;fill-rule:nonzero;fill:rgb(0%,0%,0%);fill-opacity:1;" d="M 130.945312 131.855469 L 105.15625 135.128906 L 107.832031 143.761719 Z M 130.945312 131.855469 "/>
<path style="fill:none;stroke-width:1.2;stroke-linecap:butt;stroke-linejoin:miter;stroke:rgb(0%,0%,0%);stroke-opacity:1;stroke-miterlimit:10;" d="M 130.945312 131.855469 L 149.746094 149.238281 "/>
<path style=" stroke:none;fill-rule:nonzero;fill:rgb(0%,0%,0%);fill-opacity:1;" d="M 149.746094 149.238281 L 175.738281 148.675781 L 173.976562 139.816406 Z M 149.746094 149.238281 "/>
<path style="fill:none;stroke-width:1.2;stroke-linecap:butt;stroke-linejoin:miter;stroke:rgb(100%,0%,0%);stroke-opacity:1;stroke-miterlimit:10;" d="M 146.730469 174.664062 L 148.238281 161.949219 "/>
<path style="fill:none;stroke-width:1.2;stroke-linecap:butt;stroke-linejoin:miter;stroke:rgb(0%,0%,0%);stroke-opacity:1;stroke-miterlimit:10;" d="M 148.238281 161.949219 L 149.746094 149.238281 "/>
<path style="fill:none;stroke-width:1.2;stroke-linecap:butt;stroke-linejoin:miter;stroke:rgb(0%,0%,0%);stroke-opacity:1;stroke-miterlimit:10;" d="M 174.855469 144.246094 L 187.363281 166.585938 "/>
<path style="fill:none;stroke-width:1.2;stroke-linecap:butt;stroke-linejoin:miter;stroke:rgb(0%,0%,0%);stroke-opacity:1;stroke-miterlimit:10;" d="M 187.949219 122.246094 L 174.855469 144.246094 "/>
<path style="fill:none;stroke-width:1.2;stroke-linecap:butt;stroke-linejoin:miter;stroke:rgb(0%,0%,0%);stroke-opacity:1;stroke-miterlimit:10;" d="M 191.816406 127.527344 L 181.339844 145.125 "/>
<path style="fill:none;stroke-width:1.2;stroke-linecap:butt;stroke-linejoin:miter;stroke:rgb(0%,0%,0%);stroke-opacity:1;stroke-miterlimit:10;" d="M 187.363281 166.585938 L 212.964844 166.925781 "/>
<path style="fill:none;stroke-width:1.2;stroke-linecap:butt;stroke-linejoin:miter;stroke:rgb(0%,0%,0%);stroke-opacity:1;stroke-miterlimit:10;" d="M 190.003906 160.597656 L 210.484375 160.867188 "/>
<path style="fill:none;stroke-width:1.2;stroke-linecap:butt;stroke-linejoin:miter;stroke:rgb(0%,0%,0%);stroke-opacity:1;stroke-miterlimit:10;" d="M 187.363281 166.585938 L 169.980469 185.382812 "/>
<path style="fill:none;stroke-width:1.2;stroke-linecap:butt;stroke-linejoin:miter;stroke:rgb(0%,0%,0%);stroke-opacity:1;stroke-miterlimit:10;" d="M 212.964844 166.925781 L 226.054688 144.921875 "/>
<path style="fill:none;stroke-width:1.2;stroke-linecap:butt;stroke-linejoin:miter;stroke:rgb(0%,0%,0%);stroke-opacity:1;stroke-miterlimit:10;" d="M 212.964844 166.925781 L 219.214844 178.09375 "/>
<path style="fill:none;stroke-width:1.2;stroke-linecap:butt;stroke-linejoin:miter;stroke:rgb(100%,0%,0%);stroke-opacity:1;stroke-miterlimit:10;" d="M 219.214844 178.09375 L 225.46875 189.265625 "/>
<path style="fill:none;stroke-width:1.2;stroke-linecap:butt;stroke-linejoin:miter;stroke:rgb(0%,0%,0%);stroke-opacity:1;stroke-miterlimit:10;" d="M 226.054688 144.921875 L 213.550781 122.582031 "/>
<path style="fill:none;stroke-width:1.2;stroke-linecap:butt;stroke-linejoin:miter;stroke:rgb(0%,0%,0%);stroke-opacity:1;stroke-miterlimit:10;" d="M 219.550781 145.632812 L 209.542969 127.761719 "/>
<path style="fill:none;stroke-width:1.2;stroke-linecap:butt;stroke-linejoin:miter;stroke:rgb(0%,0%,0%);stroke-opacity:1;stroke-miterlimit:10;" d="M 226.054688 144.921875 L 238.855469 145.09375 "/>
<path style="fill:none;stroke-width:1.2;stroke-linecap:butt;stroke-linejoin:miter;stroke:rgb(100%,0%,0%);stroke-opacity:1;stroke-miterlimit:10;" d="M 238.855469 145.09375 L 251.65625 145.261719 "/>
<path style="fill:none;stroke-width:1.2;stroke-linecap:butt;stroke-linejoin:miter;stroke:rgb(0%,0%,0%);stroke-opacity:1;stroke-miterlimit:10;" d="M 213.550781 122.582031 L 187.949219 122.246094 "/>
<path style="fill:none;stroke-width:1.2;stroke-linecap:butt;stroke-linejoin:miter;stroke:rgb(100%,0%,0%);stroke-opacity:1;stroke-miterlimit:10;" d="M 251.65625 145.261719 L 258.203125 134.261719 "/>
<path style="fill:none;stroke-width:1.2;stroke-linecap:butt;stroke-linejoin:miter;stroke:rgb(0%,0%,0%);stroke-opacity:1;stroke-miterlimit:10;" d="M 258.203125 134.261719 L 264.75 123.261719 "/>
<path style=" stroke:none;fill-rule:nonzero;fill:rgb(100%,100%,100%);fill-opacity:1;" d="M 247.65625 138.761719 L 256.65625 138.761719 L 256.65625 151.761719 L 247.65625 151.761719 Z M 247.65625 138.761719 "/>
<g style="fill:rgb(100%,0%,0%);fill-opacity:1;">
  <use xlink:href="#glyph0-2" x="247.65625" y="148.663086"/>
</g>
<path style="fill:none;stroke-width:1.2;stroke-linecap:butt;stroke-linejoin:miter;stroke:rgb(100%,0%,0%);stroke-opacity:1;stroke-miterlimit:10;" d="M 225.46875 189.265625 L 238.269531 189.433594 "/>
<path style="fill:none;stroke-width:1.2;stroke-linecap:butt;stroke-linejoin:miter;stroke:rgb(0%,0%,0%);stroke-opacity:1;stroke-miterlimit:10;" d="M 238.269531 189.433594 L 251.070312 189.601562 "/>
<path style=" stroke:none;fill-rule:nonzero;fill:rgb(100%,100%,100%);fill-opacity:1;" d="M 221.46875 182.765625 L 230.46875 182.765625 L 230.46875 195.765625 L 221.46875 195.765625 Z M 221.46875 182.765625 "/>
<g style="fill:rgb(100%,0%,0%);fill-opacity:1;">
  <use xlink:href="#glyph0-2" x="221.46875" y="192.666992"/>
</g>
<path style="fill:none;stroke-width:1.2;stroke-linecap:butt;stroke-linejoin:miter;stroke:rgb(0%,0%,0%);stroke-opacity:1;stroke-miterlimit:10;" d="M 167.027344 185.972656 L 169.523438 198.527344 "/>
<path style="fill:none;stroke-width:1.2;stroke-linecap:butt;stroke-linejoin:miter;stroke:rgb(100%,0%,0%);stroke-opacity:1;stroke-miterlimit:10;" d="M 169.523438 198.527344 L 172.019531 211.082031 "/>
<path style="fill:none;stroke-width:1.2;stroke-linecap:butt;stroke-linejoin:miter;stroke:rgb(0%,0%,0%);stroke-opacity:1;stroke-miterlimit:10;" d="M 172.933594 184.796875 L 175.429688 197.351562 "/>
<path style="fill:none;stroke-width:1.2;stroke-linecap:butt;stroke-linejoin:miter;stroke:rgb(100%,0%,0%);stroke-opacity:1;stroke-miterlimit:10;" d="M 175.429688 197.351562 L 177.925781 209.910156 "/>
<path style="fill:none;stroke-width:1.2;stroke-linecap:butt;stroke-linejoin:miter;stroke:rgb(0%,0%,0%);stroke-opacity:1;stroke-miterlimit:10;" d="M 169.980469 185.382812 L 158.355469 180.023438 "/>
<path style="fill:none;stroke-width:1.2;stroke-linecap:butt;stroke-linejoin:miter;stroke:rgb(100%,0%,0%);stroke-opacity:1;stroke-miterlimit:10;" d="M 158.355469 180.023438 L 146.730469 174.664062 "/>
<path style=" stroke:none;fill-rule:nonzero;fill:rgb(100%,100%,100%);fill-opacity:1;" d="M 170.972656 203.996094 L 179.972656 203.996094 L 179.972656 216.996094 L 170.972656 216.996094 Z M 170.972656 203.996094 "/>
<g style="fill:rgb(100%,0%,0%);fill-opacity:1;">
  <use xlink:href="#glyph0-2" x="170.972656" y="213.897461"/>
</g>
<path style=" stroke:none;fill-rule:nonzero;fill:rgb(100%,100%,100%);fill-opacity:1;" d="M 142.730469 168.164062 L 151.730469 168.164062 L 151.730469 181.164062 L 142.730469 181.164062 Z M 142.730469 168.164062 "/>
<g style="fill:rgb(100%,0%,0%);fill-opacity:1;">
  <use xlink:href="#glyph0-2" x="142.730469" y="178.06543"/>
</g>
<path style="fill:none;stroke-width:1.2;stroke-linecap:butt;stroke-linejoin:miter;stroke:rgb(100%,0%,0%);stroke-opacity:1;stroke-miterlimit:10;" d="M 65.667969 195.253906 L 52.953125 193.75 "/>
<path style="fill:none;stroke-width:1.2;stroke-linecap:butt;stroke-linejoin:miter;stroke:rgb(0%,0%,0%);stroke-opacity:1;stroke-miterlimit:10;" d="M 52.953125 193.75 L 40.242188 192.242188 "/>
<path style=" stroke:none;fill-rule:nonzero;fill:rgb(100%,100%,100%);fill-opacity:1;" d="M 61.667969 188.753906 L 70.667969 188.753906 L 70.667969 201.753906 L 61.667969 201.753906 Z M 61.667969 188.753906 "/>
<g style="fill:rgb(100%,0%,0%);fill-opacity:1;">
  <use xlink:href="#glyph0-2" x="61.667969" y="198.655273"/>
</g>
<path style="fill:none;stroke-width:1.2;stroke-linecap:butt;stroke-linejoin:miter;stroke:rgb(0%,0%,0%);stroke-opacity:1;stroke-miterlimit:10;" d="M 40.242188 192.242188 L 37.746094 179.6875 "/>
<path style="fill:none;stroke-width:1.2;stroke-linecap:butt;stroke-linejoin:miter;stroke:rgb(100%,0%,0%);stroke-opacity:1;stroke-miterlimit:10;" d="M 37.746094 179.6875 L 35.25 167.132812 "/>
<path style=" stroke:none;fill-rule:nonzero;fill:rgb(100%,100%,100%);fill-opacity:1;" d="M 31.25 160.632812 L 40.25 160.632812 L 40.25 173.632812 L 31.25 173.632812 Z M 31.25 160.632812 "/>
<g style="fill:rgb(100%,0%,0%);fill-opacity:1;">
  <use xlink:href="#glyph0-2" x="31.25" y="170.53418"/>
</g>
</g>
</svg>

<svg xmlns="http://www.w3.org/2000/svg" xmlns:xlink="http://www.w3.org/1999/xlink" width="300pt" height="300pt" viewBox="0 0 300 300"><defs><symbol overflow="visible"><path d="M.547 1.938V-7.75h5.5v9.688zm.625-.61h4.266v-8.47H1.171zm0 0"/></symbol><symbol overflow="visible" id="a"><path d="M1.078-8.016h1.47l3.546 6.704v-6.704h1.062V0H5.688L2.124-6.703V0H1.078zm0 0"/></symbol><symbol overflow="visible" id="b"><path d="M4.328-7.28c-.78 0-1.406.296-1.875.89-.46.585-.687 1.382-.687 2.39 0 1.012.226 1.813.687 2.406.47.586 1.094.875 1.875.875.79 0 1.414-.288 1.875-.874.457-.593.688-1.394.688-2.406 0-1.008-.23-1.805-.687-2.39-.46-.594-1.086-.89-1.875-.89zm0-.892c1.125 0 2.024.383 2.703 1.14C7.708-6.28 8.048-5.27 8.048-4c0 1.262-.34 2.273-1.016 3.03C6.353-.22 5.454.157 4.33.157S2.3-.22 1.625-.97c-.668-.75-1-1.757-1-3.03 0-1.27.332-2.28 1-3.03.676-.76 1.578-1.142 2.703-1.142zm0 0"/></symbol></defs><g><path fill="#fff" d="M0 0h300v300H0z"/><path d="M161.05 99.297l-12.226 3.793" stroke-width="1.2" stroke="#000" stroke-miterlimit="10" fill="none"/><path d="M148.824 103.09l-12.226 3.797M136.598 106.887l-9.4-8.692" stroke-width="1.2" stroke="#00f" stroke-miterlimit="10" fill="none"/><path d="M127.2 98.195l-9.4-8.69M130.945 131.855l2.828-12.484" stroke-width="1.2" stroke="#000" stroke-miterlimit="10" fill="none"/><path d="M133.773 119.37l2.825-12.483" stroke-width="1.2" stroke="#00f" stroke-miterlimit="10" fill="none"/><path d="M132.598 100.387h8v13h-8zm0 0" fill="#fff"/><use xlink:href="#a" x="132.598" y="110.288" fill="#00f"/><path d="M117.8 89.504l-24.452 7.59M93.348 97.094l-5.653 24.97M87.695 122.063l-24.453 7.59M87.035 128.578l-19.562 6.07M106.492 139.445l-18.797-17.382M63.242 129.652l-5.652 24.973M57.59 154.625l18.797 17.38M55.38 160.785l15.038 13.906" stroke-width="1.2" stroke="#000" stroke-miterlimit="10" fill="none"/><path d="M35.25 167.133l11.168-6.254" stroke-width="1.2" stroke="#f00" stroke-miterlimit="10" fill="none"/><path d="M46.418 160.88l11.172-6.255M76.387 172.004l24.453-7.586M76.387 172.004l-5.36 11.625" stroke-width="1.2" stroke="#000" stroke-miterlimit="10" fill="none"/><path d="M71.027 183.63l-5.36 11.624" stroke-width="1.2" stroke="#f00" stroke-miterlimit="10" fill="none"/><path d="M100.84 164.418l5.652-24.973M95.53 160.59l4.525-19.977" stroke-width="1.2" stroke="#000" stroke-miterlimit="10" fill="none"/><path d="M130.945 131.855l-25.79 3.274 2.677 8.632zm0 0"/><path d="M130.945 131.855l18.8 17.383" stroke-width="1.2" stroke="#000" stroke-miterlimit="10" fill="none"/><path d="M149.746 149.238l25.992-.562-1.76-8.86zm0 0"/><path d="M146.73 174.664l1.508-12.715" stroke-width="1.2" stroke="#f00" stroke-miterlimit="10" fill="none"/><path d="M148.238 161.95l1.508-12.712M174.855 144.246l12.508 22.34M187.95 122.246l-13.095 22M191.816 127.527l-10.476 17.598M187.363 166.586l25.602.34M190.004 160.598l20.48.27M187.363 166.586l-17.383 18.797M212.965 166.926l13.09-22.004M212.965 166.926l6.25 11.168" stroke-width="1.2" stroke="#000" stroke-miterlimit="10" fill="none"/><path d="M219.215 178.094l6.254 11.172" stroke-width="1.2" stroke="#f00" stroke-miterlimit="10" fill="none"/><path d="M226.055 144.922l-12.504-22.34M219.55 145.633l-10.007-17.87M226.055 144.922l12.8.172" stroke-width="1.2" stroke="#000" stroke-miterlimit="10" fill="none"/><path d="M238.855 145.094l12.8.168" stroke-width="1.2" stroke="#f00" stroke-miterlimit="10" fill="none"/><path d="M213.55 122.582l-25.6-.336" stroke-width="1.2" stroke="#000" stroke-miterlimit="10" fill="none"/><path d="M251.656 145.262l6.547-11" stroke-width="1.2" stroke="#f00" stroke-miterlimit="10" fill="none"/><path d="M258.203 134.262l6.547-11" stroke-width="1.2" stroke="#000" stroke-miterlimit="10" fill="none"/><path d="M247.656 138.762h9v13h-9zm0 0" fill="#fff"/><use xlink:href="#b" x="247.656" y="148.663" fill="#f00"/><path d="M225.47 189.266l12.8.168" stroke-width="1.2" stroke="#f00" stroke-miterlimit="10" fill="none"/><path d="M238.27 189.434l12.8.168" stroke-width="1.2" stroke="#000" stroke-miterlimit="10" fill="none"/><path d="M221.47 182.766h9v13h-9zm0 0" fill="#fff"/><use xlink:href="#b" x="221.469" y="192.667" fill="#f00"/><path d="M167.027 185.973l2.496 12.554" stroke-width="1.2" stroke="#000" stroke-miterlimit="10" fill="none"/><path d="M169.523 198.527l2.497 12.555" stroke-width="1.2" stroke="#f00" stroke-miterlimit="10" fill="none"/><path d="M172.934 184.797l2.496 12.555" stroke-width="1.2" stroke="#000" stroke-miterlimit="10" fill="none"/><path d="M175.43 197.352l2.496 12.558" stroke-width="1.2" stroke="#f00" stroke-miterlimit="10" fill="none"/><path d="M169.98 185.383l-11.625-5.36" stroke-width="1.2" stroke="#000" stroke-miterlimit="10" fill="none"/><path d="M158.355 180.023l-11.625-5.36" stroke-width="1.2" stroke="#f00" stroke-miterlimit="10" fill="none"/><path d="M170.973 203.996h9v13h-9zm0 0" fill="#fff"/><use xlink:href="#b" x="170.973" y="213.897" fill="#f00"/><path d="M142.73 168.164h9v13h-9zm0 0" fill="#fff"/><use xlink:href="#b" x="142.73" y="178.065" fill="#f00"/><path d="M65.668 195.254l-12.715-1.504" stroke-width="1.2" stroke="#f00" stroke-miterlimit="10" fill="none"/><path d="M52.953 193.75l-12.71-1.508" stroke-width="1.2" stroke="#000" stroke-miterlimit="10" fill="none"/><path d="M61.668 188.754h9v13h-9zm0 0" fill="#fff"/><use xlink:href="#b" x="61.668" y="198.655" fill="#f00"/><path d="M40.242 192.242l-2.496-12.554" stroke-width="1.2" stroke="#000" stroke-miterlimit="10" fill="none"/><path d="M37.746 179.688l-2.496-12.555" stroke-width="1.2" stroke="#f00" stroke-miterlimit="10" fill="none"/><path d="M31.25 160.633h9v13h-9zm0 0" fill="#fff"/><use xlink:href="#b" x="31.25" y="170.534" fill="#f00"/></g></svg>
